X:607
T:Jean Milligan
C:Joe Buchanan's Scottish Tome - Page 175.2
I:175 2
C:Jimmy Shand
Z:Carl Allison
R:Reel
L:1/8
M:4/4
K:A
E2 | "A"A2 cB "A7"A2 ce | "D"fefg a2 (gf) | "A"e2 c2 "F#m"dcBA | "B7"c2 B2 "E7"B2 cB |
"A"A2 cB "A7"A2 ce | "D"fefg "D#dim"a2 gf | "A"eagf "E7"edcB | "A"c2 A2 A2 :|
e2 | "A"a2 ed cB A2 | "D"dcde f2>e2 | "A"a2 e2 "F#7"efec | "Bm"d2 B2 "E7"B2 e2 |
"A"a2 ed "A7"cB A2 | "D"dcde f2>d2 | "A"eagf "E7"edcB | "A"c2 "D"A2 "A"A2 :|

